public/media/theme/medal4.svg

<?xml version="1.0" encoding="UTF-8"?>
<svg width="50px" height="50px" viewBox="0 0 50 50" version="1.1" xmlns="http://www.w3.org/2000/svg" xmlns:xlink="http://www.w3.org/1999/xlink">
    <!-- Generator: Sketch 48.2 (47327) - http://www.bohemiancoding.com/sketch -->
    <title>Icon</title>
    <desc>Created with Sketch.</desc>
    <defs>
        <path d="M25,50 C38.8071187,50 50,38.8071187 50,25 C50,11.1928813 38.8071187,0 25,0 C11.1928813,0 0,11.1928813 0,25 C0,38.8071187 11.1928813,50 25,50 Z" id="path-1"></path>
    </defs>
    <g id="P9---Achievements" stroke="none" stroke-width="1" fill="none" fill-rule="evenodd" transform="translate(-505.000000, -628.000000)">
        <g id="Medal-#4" transform="translate(475.000000, 628.000000)">
            <g id="Icon" transform="translate(30.000000, 0.000000)">
                <mask id="mask-2" fill="white">
                    <use xlink:href="#path-1"></use>
                </mask>
                <g id="Base">
                    <use fill="#FAF5D3" fill-rule="evenodd" xlink:href="#path-1"></use>
                    <path stroke="#E0B124" stroke-width="3" d="M25,48.5 C37.9786916,48.5 48.5,37.9786916 48.5,25 C48.5,12.0213084 37.9786916,1.5 25,1.5 C12.0213084,1.5 1.5,12.0213084 1.5,25 C1.5,37.9786916 12.0213084,48.5 25,48.5 Z"></path>
                </g>
                <path d="M34.0107,27 L34.0107,13 L31.0107,13 L31.0107,15 L28.0107,15 L28.0107,13 L25.0107,13 L25.0107,15 L22.0107,15 L22.0107,13 L19.0107,13 L19.0107,36.424 C35.0297,34.421 33.4777,33.543 33.0107,32 C32.4367,30.104 25.0107,26 25.0107,26 L25.0107,20 L29.0107,20 L29.0107,26 L25.0107,26 C25.0107,26 26.7767,26.089 30.0107,26 C33.2447,28.103 39.7207,32.581 38.0107,34 C32.0837,39.303 20.2207,42.664 14.0107,44.136 L14.0107,45 L27.0107,49 L39.0107,48 L40.0107,44 L40.0107,33 C40.0107,31.812 34.0107,27 34.0107,27 M5.0107,38 C10.2487,37.454 14.5127,36.976 18.0107,36.547 L18.0107,13.4 L14.0107,15 L14.0107,35.787 C10.9127,36.153 7.2907,36.553 3.0107,37 C2.7307,37.266 8.0107,44 8.0107,44 C8.0107,44 8.3957,43.929 9.0717,43.789 C7.5687,41.84 4.8057,38.195 5.0107,38" fill="#E0B124" mask="url(#mask-2)"></path>
                <path d="M-3.171,-22.9994 L-6,-20.1714 L44.205,30.0336 L47.034,27.2056 L-3.171,-22.9994 Z M-5.242,8.0716 L44.963,58.2756 L56.276,46.9626 L6.071,-3.2424 L-5.242,8.0716 Z" id="Shine" fill="#FFFFFF" opacity="0.199999988" mask="url(#mask-2)"></path>
            </g>
        </g>
    </g>
</svg>

<svg width="50" height="50" viewBox="0 0 50 50" xmlns="http://www.w3.org/2000/svg" xmlns:xlink="http://www.w3.org/1999/xlink"><title>Icon</title><defs><path d="M25 50c13.807 0 25-11.193 25-25S38.807 0 25 0 0 11.193 0 25s11.193 25 25 25z" id="a"/></defs><g fill="none" fill-rule="evenodd"><mask id="b" fill="#fff"><use xlink:href="#a"/></mask><use fill="#FAF5D3" xlink:href="#a"/><path stroke="#E0B124" stroke-width="3" d="M25 48.5c12.979 0 23.5-10.521 23.5-23.5S37.979 1.5 25 1.5 1.5 12.021 1.5 25 12.021 48.5 25 48.5z"/><path d="M34.01 27V13h-3v2h-3v-2h-3v2h-3v-2h-3v23.424c16.02-2.003 14.468-2.881 14-4.424-.573-1.896-8-6-8-6v-6h4v6h-4s1.767.089 5 0c3.235 2.103 9.71 6.581 8 8-5.926 5.303-17.79 8.664-24 10.136V45l13 4 12-1 1-4V33c0-1.188-6-6-6-6m-29 11a733.374 733.374 0 0 0 13-1.453V13.4l-4 1.6v20.787c-3.097.366-6.72.766-11 1.213-.28.266 5 7 5 7s.386-.071 1.062-.211C7.569 41.84 4.806 38.195 5.01 38" fill="#E0B124" mask="url(#b)"/><path d="M-3.171-23L-6-20.17l50.205 50.205 2.829-2.828L-3.171-23zM-5.242 8.073l50.205 50.204 11.313-11.313L6.071-3.242-5.242 8.072z" fill="#FFF" opacity=".2" mask="url(#b)"/></g></svg>
